germany/municipalities/07235069.svg

<?xml version="1.0" encoding="UTF-8" standalone="no"?>
<!-- Created with Inkscape (http://www.inkscape.org/) -->

<svg
   xmlns:dc="http://purl.org/dc/elements/1.1/"
   xmlns:cc="http://creativecommons.org/ns#"
   xmlns:rdf="http://www.w3.org/1999/02/22-rdf-syntax-ns#"
   xmlns:svg="http://www.w3.org/2000/svg"
   xmlns="http://www.w3.org/2000/svg"
   xmlns:sodipodi="http://sodipodi.sourceforge.net/DTD/sodipodi-0.dtd"
   xmlns:inkscape="http://www.inkscape.org/namespaces/inkscape"
   width="144.23949mm"
   height="158.65758mm"
   viewBox="0 0 144.23949 158.65758"
   version="1.1"
   id="svg865"
   inkscape:version="0.92.5 (2060ec1f9f, 2020-04-08)"
   sodipodi:docname="DEU Kordel COA.svg">
  <defs
     id="defs859">
    <inkscape:path-effect
       effect="spiro"
       id="path-effect1014"
       is_visible="true" />
    <inkscape:path-effect
       effect="spiro"
       id="path-effect984"
       is_visible="true" />
    <inkscape:path-effect
       effect="spiro"
       id="path-effect2638"
       is_visible="true" />
    <inkscape:path-effect
       effect="spiro"
       id="path-effect3644"
       is_visible="true" />
    <inkscape:path-effect
       effect="spiro"
       id="path-effect3636"
       is_visible="true" />
    <inkscape:path-effect
       effect="spiro"
       id="path-effect3544"
       is_visible="true" />
    <inkscape:path-effect
       effect="spiro"
       id="path-effect3466"
       is_visible="true" />
    <inkscape:path-effect
       effect="spiro"
       id="path-effect3544-2"
       is_visible="true" />
    <inkscape:path-effect
       effect="spiro"
       id="path-effect3644-8"
       is_visible="true" />
    <inkscape:path-effect
       effect="spiro"
       id="path-effect3644-3"
       is_visible="true" />
    <inkscape:path-effect
       effect="spiro"
       id="path-effect3636-0"
       is_visible="true" />
    <inkscape:path-effect
       effect="spiro"
       id="path-effect1727-0-1"
       is_visible="true" />
    <inkscape:path-effect
       effect="spiro"
       id="path-effect1731-8-3"
       is_visible="true" />
    <inkscape:path-effect
       effect="spiro"
       id="path-effect1727-3"
       is_visible="true" />
    <inkscape:path-effect
       effect="spiro"
       id="path-effect1731-7"
       is_visible="true" />
    <inkscape:path-effect
       effect="spiro"
       id="path-effect841-8"
       is_visible="true" />
    <inkscape:path-effect
       effect="spiro"
       id="path-effect984-2"
       is_visible="true" />
    <inkscape:path-effect
       effect="spiro"
       id="path-effect1014-2"
       is_visible="true" />
  </defs>
  <sodipodi:namedview
     id="base"
     pagecolor="#ffffff"
     bordercolor="#666666"
     borderopacity="1.0"
     inkscape:pageopacity="0.0"
     inkscape:pageshadow="2"
     inkscape:zoom="1.3224365"
     inkscape:cx="272.57856"
     inkscape:cy="299.82535"
     inkscape:document-units="mm"
     inkscape:current-layer="layer1"
     showgrid="false"
     inkscape:window-width="1920"
     inkscape:window-height="1046"
     inkscape:window-x="-11"
     inkscape:window-y="-11"
     inkscape:window-maximized="1"
     fit-margin-top="0"
     fit-margin-left="0"
     fit-margin-right="0"
     fit-margin-bottom="0"
     inkscape:snap-global="false"
     inkscape:snap-midpoints="true"
     inkscape:snap-smooth-nodes="true" />
  <metadata
     id="metadata862">
    <rdf:RDF>
      <cc:Work
         rdf:about="">
        <dc:format>image/svg+xml</dc:format>
        <dc:type
           rdf:resource="http://purl.org/dc/dcmitype/StillImage" />
        <dc:title />
      </cc:Work>
    </rdf:RDF>
  </metadata>
  <g
     inkscape:label="Ebene 1"
     inkscape:groupmode="layer"
     id="layer1"
     transform="translate(7.3089777,168.58685)">
    <path
       style="fill:#ff0000;fill-opacity:1;fill-rule:evenodd;stroke:none;stroke-width:2.11666656;stroke-linecap:round;stroke-linejoin:round;stroke-miterlimit:4;stroke-dasharray:none;stroke-opacity:1"
       inkscape:connector-curvature="0"
       d="m 135.87218,-167.52852 -0.32489,90.834301 c -1.58182,37.540967 -32.83506,65.685596 -70.736521,65.706617 -37.867373,-0.0461 -69.1323139,-28.201366 -70.7365239,-65.706617 l -0.32489,-90.834301 H 64.80906 Z"
       id="path10563-0-6-2-6-9-6"
       sodipodi:nodetypes="ccccccc" />
    <path
       style="opacity:1;fill:#ffffff;fill-opacity:1;fill-rule:evenodd;stroke:#000000;stroke-width:7.99999952;stroke-linecap:round;stroke-linejoin:round;stroke-miterlimit:4;stroke-dasharray:none;stroke-opacity:1;paint-order:fill markers stroke"
       d="M 4 4 L 5.2285156 347.31055 C 11.291589 489.06074 129.45413 595.47325 272.57227 595.65039 L 272.57227 4 L 4 4 z "
       transform="matrix(0.26458333,0,0,0.26458333,-7.3089777,-168.58685)"
       id="rect2519" />
    <path
       style="opacity:1;fill:#ffffff;fill-opacity:1;fill-rule:evenodd;stroke:#020000;stroke-width:2.11666656;stroke-linecap:round;stroke-linejoin:round;stroke-miterlimit:4;stroke-dasharray:none;stroke-opacity:1;paint-order:fill markers stroke"
       d="m 26.420862,-148.86764 v 12.44782 H 8.1754658 v -12.32896 H -6.1833471 l 0.1100693,30.8224 H 135.69481 l 0.11007,-30.8224 h -14.35881 v 12.32896 h -18.2454 v -12.44782 H 88.263599 v 12.44782 H 70.975248 v -12.43852 H 58.646286 v 12.43852 H 41.357935 v -12.44782 z"
       id="rect2537"
       inkscape:connector-curvature="0" />
    <path
       style="opacity:1;fill:#ff0000;fill-opacity:1;fill-rule:evenodd;stroke:#020000;stroke-width:7.99999952;stroke-linecap:round;stroke-linejoin:round;stroke-miterlimit:4;stroke-dasharray:none;stroke-opacity:1;paint-order:fill markers stroke"
       d="M 127.48242 74.529297 L 127.48242 121.57617 L 58.523438 121.57617 L 58.523438 74.978516 L 4.2539062 74.978516 L 4.6699219 191.47266 L 272.57227 191.47266 L 272.57227 74.564453 L 249.2793 74.564453 L 249.2793 121.57617 L 183.9375 121.57617 L 183.9375 74.529297 L 127.48242 74.529297 z "
       transform="matrix(0.26458333,0,0,0.26458333,-7.3089777,-168.58685)"
       id="rect2537-4" />
    <path
       style="opacity:1;fill:#ff0000;fill-opacity:1;fill-rule:evenodd;stroke:#020000;stroke-width:7.99999952;stroke-linecap:round;stroke-linejoin:round;stroke-miterlimit:4;stroke-dasharray:none;stroke-opacity:1;paint-order:fill markers stroke"
       d="M 198.27734 210.77148 C 184.43796 210.84556 170.53853 215.75789 160.63086 225.36719 C 151.03505 234.67393 145.59495 248.11546 146.01562 261.47656 L 146.01562 402.47852 L 58.607422 402.47852 L 58.607422 429.41797 L 146.01562 429.41797 L 146.01562 565.31055 C 154.72174 569.78181 163.71226 573.80226 172.95508 577.33984 L 172.95508 429.41797 L 252.33984 429.41797 L 252.33984 402.47852 L 172.95508 402.47852 L 172.95508 261.47656 C 172.60789 256.10096 173.92602 250.62864 176.68164 246 C 180.50637 239.5756 187.12359 234.88622 194.44922 233.39062 C 198.05152 232.65525 201.81563 232.66691 205.39062 233.52539 C 208.96565 234.38372 212.34534 236.09584 215.08398 238.54883 C 220.12795 243.06669 222.69668 249.72838 224.25391 256.31836 C 224.84293 258.81107 225.31344 261.33534 226.05469 263.78711 C 226.79594 266.23888 227.82358 268.6372 229.41211 270.64648 C 231.01321 272.67168 233.20172 274.26978 235.6875 274.9668 C 238.17328 275.66382 240.95412 275.41076 243.16992 274.08594 C 245.23373 272.85199 246.70139 270.77995 247.56836 268.53711 C 248.43532 266.29427 248.74671 263.87621 248.90039 261.47656 C 249.56678 251.07165 247.25413 240.33265 241.44922 231.67188 C 237.3648 225.57803 231.64897 220.63719 225.17773 217.18164 C 218.70648 213.72613 211.49624 211.73379 204.19336 211.03711 C 202.23053 210.85002 200.2544 210.7609 198.27734 210.77148 z "
       transform="matrix(0.26458333,0,0,0.26458333,-7.3089777,-168.58685)"
       id="rect2619-83" />
    <path
       style="fill:none;fill-rule:evenodd;stroke:#000000;stroke-width:2.11666656;stroke-linecap:round;stroke-linejoin:round;stroke-miterlimit:4;stroke-dasharray:none;stroke-opacity:1"
       inkscape:connector-curvature="0"
       d="m 135.87218,-167.52852 -0.32489,90.834298 c -1.58182,37.540969 -32.83506,65.685596 -70.736521,65.706618 -37.867374,-0.0461 -69.1323138,-28.201366 -70.7365238,-65.706618 l -0.32489,-90.834298 H 64.80906 Z"
       id="path10563-0-6-2-6-9"
       sodipodi:nodetypes="ccccccc" />
    <g
       id="g1008"
       transform="rotate(45,187.73499,-394.7712)"
       style="stroke:#000000;stroke-opacity:1;fill:#ffffff">
      <path
         inkscape:connector-curvature="0"
         id="path946"
         d="m 348.81805,-139.8992 -0.59627,66.817113 h 5.28076 5.28076 l -0.59629,-66.817113 h -4.68447 z"
         style="fill:#ffffff;stroke:#000000;stroke-width:1.32291663;stroke-linecap:round;stroke-linejoin:round;stroke-miterlimit:4;stroke-dasharray:none;stroke-opacity:1" />
      <path
         inkscape:connector-curvature="0"
         id="path964"
         d="m 347.82205,-75.84626 -1.71126,5.487006 h 7.39175 7.39175 l -1.71078,-5.487006 h -5.68097 z"
         style="fill:#ffffff;stroke:#000000;stroke-width:1.32291675;stroke-linecap:round;stroke-linejoin:round;stroke-miterlimit:4;stroke-dasharray:none;stroke-opacity:1" />
      <path
         inkscape:connector-curvature="0"
         id="path982"
         d="m 352.83177,-142.60549 c -0.67069,0.0164 -1.33977,0.0947 -1.99625,0.23306 -0.71763,0.15127 -1.42417,0.37612 -2.07068,0.72244 -0.64649,0.34632 -1.2327,0.8177 -1.66347,1.41128 -0.26109,0.35978 -0.4641,0.76473 -0.56636,1.19734 -0.10226,0.43261 -0.10105,0.89341 0.0331,1.31723 0.1338,0.42283 0.39986,0.80292 0.75136,1.07332 0.35153,0.27041 0.7869,0.42976 1.22992,0.45062 0.8087,-0.42158 1.68865,-0.70618 2.59104,-0.83819 0.78189,-0.11438 1.58025,-0.11438 2.36214,0 0.7819,-0.11438 1.58023,-0.11438 2.36213,0 0.90238,0.13201 1.78236,0.41661 2.59106,0.83819 0.44299,-0.0209 0.87836,-0.18021 1.22989,-0.45062 0.35152,-0.2704 0.61759,-0.65049 0.75139,-1.07332 0.13409,-0.42382 0.13533,-0.88462 0.0331,-1.31723 -0.10229,-0.43261 -0.3053,-0.83756 -0.56639,-1.19734 -0.43077,-0.59358 -1.01695,-1.06496 -1.66346,-1.41128 -0.64649,-0.34632 -1.35303,-0.57117 -2.07066,-0.72244 -0.87532,-0.1845 -1.7731,-0.26178 -2.66703,-0.22893 -0.22349,-0.008 -0.44719,-0.01 -0.67077,-0.004 z"
         style="fill:#ffffff;stroke:#000000;stroke-width:1.32291663;stroke-linecap:round;stroke-linejoin:round;stroke-miterlimit:4;stroke-dasharray:none;stroke-opacity:1" />
    </g>
    <g
       transform="rotate(-30,197.49056,376.90249)"
       id="g1037"
       style="stroke:#000000;stroke-opacity:1;fill:#ffffff">
      <rect
         rx="3.7046611"
         ry="3.7046611"
         y="-84.13649"
         x="335.00171"
         height="54.942974"
         width="7.4093223"
         id="rect1010"
         style="opacity:1;fill:#ffffff;fill-opacity:1;fill-rule:evenodd;stroke:#000000;stroke-width:1.32291663;stroke-linecap:round;stroke-linejoin:round;stroke-miterlimit:4;stroke-dasharray:none;stroke-opacity:1;paint-order:fill markers stroke" />
      <path
         sodipodi:nodetypes="ccccccsccc"
         inkscape:connector-curvature="0"
         id="path1012"
         d="m 325.65841,-98.500689 c 0.3374,2.003687 0.72231,3.998608 1.15457,5.981546 0.5604,2.57089 1.21184,5.15393 2.42466,7.455877 1.3022,2.471615 3.2841,4.588917 5.73536,5.69474 2.49328,1.093938 5.17676,1.0123 7.46672,0 2.45128,-1.105823 4.43271,-3.223125 5.73492,-5.69474 1.21279,-2.301947 1.8647,-4.884987 2.42513,-7.455877 0.43226,-1.982938 0.81717,-3.977859 1.15457,-5.981546 h -13.04822 z"
         style="fill:#ffffff;stroke:#000000;stroke-width:1.32291675;stroke-linecap:round;stroke-linejoin:round;stroke-miterlimit:4;stroke-dasharray:none;stroke-opacity:1" />
    </g>
  </g>
</svg>

<svg xmlns="http://www.w3.org/2000/svg" width="545.157" height="599.651" viewBox="0 0 144.239 158.658"><path style="fill:red;fill-opacity:1;fill-rule:evenodd;stroke:none;stroke-width:2.11666656;stroke-linecap:round;stroke-linejoin:round;stroke-miterlimit:4;stroke-dasharray:none;stroke-opacity:1" d="m135.872-167.529-.325 90.835c-1.582 37.54-32.835 65.685-70.736 65.706-37.868-.046-69.133-28.201-70.737-65.706l-.325-90.835h71.06z" transform="translate(7.309 168.587)"/><path style="opacity:1;fill:#fff;fill-opacity:1;fill-rule:evenodd;stroke:#000;stroke-width:7.99999952;stroke-linecap:round;stroke-linejoin:round;stroke-miterlimit:4;stroke-dasharray:none;stroke-opacity:1;paint-order:fill markers stroke" d="m4 4 1.229 343.31c6.063 141.75 124.225 248.163 267.343 248.34V4H4z" transform="scale(.26458)"/><path style="opacity:1;fill:#fff;fill-opacity:1;fill-rule:evenodd;stroke:#020000;stroke-width:2.11666656;stroke-linecap:round;stroke-linejoin:round;stroke-miterlimit:4;stroke-dasharray:none;stroke-opacity:1;paint-order:fill markers stroke" d="M26.42-148.868v12.448H8.176v-12.329H-6.183l.11 30.823h141.768l.11-30.823h-14.359v12.33h-18.245v-12.449H88.264v12.448H70.975v-12.438H58.646v12.438H41.358v-12.448z" transform="translate(7.309 168.587)"/><path style="opacity:1;fill:red;fill-opacity:1;fill-rule:evenodd;stroke:#020000;stroke-width:7.99999952;stroke-linecap:round;stroke-linejoin:round;stroke-miterlimit:4;stroke-dasharray:none;stroke-opacity:1;paint-order:fill markers stroke" d="M127.482 74.53v47.046H58.523V74.98H4.253l.417 116.494h267.902V74.564H249.28v47.012h-65.341V74.53h-56.456zM198.277 210.771c-13.839.075-27.738 4.987-37.646 14.596-9.596 9.307-15.036 22.748-14.615 36.11v141.002H58.607v26.939h87.409v135.893a271.016 271.016 0 0 0 26.94 12.029V429.418h79.384v-26.94h-79.385V261.478A27.066 27.066 0 0 1 176.682 246c3.824-6.424 10.442-11.114 17.767-12.61 3.603-.735 7.367-.723 10.942.135 3.575.859 6.954 2.57 9.693 5.024 5.044 4.518 7.613 11.18 9.17 17.77.589 2.492 1.06 5.016 1.8 7.468.742 2.452 1.77 4.85 3.358 6.86 1.601 2.025 3.79 3.623 6.275 4.32 2.486.697 5.267.444 7.483-.881 2.064-1.234 3.531-3.306 4.398-5.549.867-2.243 1.179-4.66 1.332-7.06.667-10.405-1.646-21.144-7.45-29.805-4.085-6.094-9.801-11.035-16.272-14.49-6.472-3.456-13.682-5.448-20.985-6.145a59.045 59.045 0 0 0-5.916-.266z" transform="scale(.26458)"/><path style="fill:none;fill-rule:evenodd;stroke:#000;stroke-width:2.11666656;stroke-linecap:round;stroke-linejoin:round;stroke-miterlimit:4;stroke-dasharray:none;stroke-opacity:1" d="m135.872-167.529-.325 90.835c-1.582 37.54-32.835 65.685-70.736 65.706-37.868-.046-69.133-28.201-70.737-65.706l-.325-90.835h71.06z" transform="translate(7.309 168.587)"/><g style="stroke:#000;stroke-opacity:1;fill:#fff"><path d="m348.818-139.9-.596 66.818h10.561l-.596-66.817h-4.684z" style="fill:#fff;stroke:#000;stroke-width:1.32291663;stroke-linecap:round;stroke-linejoin:round;stroke-miterlimit:4;stroke-dasharray:none;stroke-opacity:1" transform="rotate(45 -12.113 -301.655)"/><path d="m347.822-75.846-1.711 5.487H360.894l-1.71-5.487h-5.681z" style="fill:#fff;stroke:#000;stroke-width:1.32291675;stroke-linecap:round;stroke-linejoin:round;stroke-miterlimit:4;stroke-dasharray:none;stroke-opacity:1" transform="rotate(45 -12.113 -301.655)"/><path d="M352.832-142.605c-.67.016-1.34.094-1.996.233-.718.15-1.425.376-2.071.722-.647.346-1.233.818-1.664 1.411a3.38 3.38 0 0 0-.566 1.198 2.49 2.49 0 0 0 .033 1.317c.134.423.4.803.751 1.073.352.27.787.43 1.23.45a8.18 8.18 0 0 1 4.954-.837 8.173 8.173 0 0 1 4.953.838c.443-.021.878-.18 1.23-.45.351-.271.617-.651.751-1.074.134-.424.135-.885.033-1.317a3.38 3.38 0 0 0-.566-1.198c-.431-.593-1.017-1.065-1.664-1.411-.646-.346-1.353-.571-2.07-.722a10.99 10.99 0 0 0-2.667-.23c-.224-.007-.448-.01-.671-.003z" style="fill:#fff;stroke:#000;stroke-width:1.32291663;stroke-linecap:round;stroke-linejoin:round;stroke-miterlimit:4;stroke-dasharray:none;stroke-opacity:1" transform="rotate(45 -12.113 -301.655)"/></g><g transform="rotate(-30 515.732 447.557)" style="stroke:#000;stroke-opacity:1;fill:#fff"><rect rx="3.705" ry="3.705" y="-84.136" x="335.002" height="54.943" width="7.409" style="opacity:1;fill:#fff;fill-opacity:1;fill-rule:evenodd;stroke:#000;stroke-width:1.32291663;stroke-linecap:round;stroke-linejoin:round;stroke-miterlimit:4;stroke-dasharray:none;stroke-opacity:1;paint-order:fill markers stroke"/><path d="M325.658-98.5c.338 2.003.723 3.998 1.155 5.98.56 2.572 1.212 5.155 2.425 7.457 1.302 2.471 3.284 4.589 5.735 5.694a9.215 9.215 0 0 0 7.467 0c2.451-1.105 4.432-3.223 5.735-5.694 1.212-2.302 1.864-4.885 2.425-7.456.432-1.983.817-3.978 1.154-5.982h-13.048z" style="fill:#fff;stroke:#000;stroke-width:1.32291675;stroke-linecap:round;stroke-linejoin:round;stroke-miterlimit:4;stroke-dasharray:none;stroke-opacity:1"/></g></svg>
